;FLAVOR:Marlin
;TIME:6666
;Filament used: 0m
;Layer height: 0.1
;MINX:2.14748e+06
;MINY:2.14748e+06
;MINZ:2.14748e+06
;MAXX:-2.14748e+06
;MAXY:-2.14748e+06
;MAXZ:-2.14748e+06

;Generated with Cura_SteamEngine master
T0
M104 S215
M105
M109 S215
M82 ;absolute extrusion mode
G28 ;Home
G1 Z15.0 F6000 ;Move the platform down 15mm
;Prime the extruder
G92 E0
G1 F200 E3
G92 E0
G92 E0
G92 E0
G1 F1500 E-6.5
;LAYER_COUNT:498
;LAYER:0
M107
G0 F3600 X-5.92 Y-5.078 Z0.3
;TYPE:SKIRT
G1 F1500 E0
G1 F1800 X-5.377 Y-5.651 E0.01485
G1 X-4.778 Y-6.166 E0.02971
G1 X-4.13 Y-6.617 E0.04456
G1 X-3.439 Y-7.001 E0.05943
G1 X-2.714 Y-7.313 E0.07428
G1 X-1.961 Y-7.55 E0.08913
G1 X-1.187 Y-7.709 E0.10399
G1 X-.402 Y-7.79 E0.11883
G1 X0.00 Y-7.8 E0.1264
G1 X50 Y-7.8 E1.06693
G1 X50.789 Y-7.76 E1.08179
G1 X51.569 Y-7.641 E1.09663
G1 X52.334 Y-7.443 E1.11149
G1 X53.074 Y-7.169 E1.12634
G1 X53.783 Y-6.821 E1.14119
G1 X54.454 Y-6.403 E1.15606
G1 X55.078 Y-5.92 E1.17091
G1 X55.651 Y-5.377 E1.18576
G1 X56.166 Y-4.778 E1.20062
G1 X56.617 Y-4.13 E1.21547
G1 X57.001 Y-3.439 E1.23034
G1 X57.313 Y-2.714 E1.24518
G1 X57.55 Y-1.961 E1.26003
G1 X57.709 Y-1.187 E1.2749
G1 X57.79 Y-.402 E1.28974
G1 X57.8 Y0.00 E1.29731
G1 X57.8 Y10 E1.48541
G1 X57.76 Y10.789 E1.50027
G1 X57.641 Y11.569 E1.51511
G1 X57.443 Y12.334 E1.52998
G1 X57.169 Y13.074 E1.54482
G1 X56.821 Y13.783 E1.55968
G1 X56.403 Y14.454 E1.57455
G1 X55.92 Y15.078 E1.58939
G1 X55.377 Y15.651 E1.60424
G1 X54.778 Y16.166 E1.6191
G1 X54.13 Y16.617 E1.63395
G1 X53.439 Y17.001 E1.64882
G1 X52.714 Y17.313 E1.66367
G1 X51.961 Y17.55 E1.67852
G1 X51.187 Y17.709 E1.69338
G1 X50.402 Y17.79 E1.70823
G1 X50 Y17.8 E1.71579
G1 X0.00 Y17.8 E2.65632
G1 X-.789 Y17.76 E2.67118
G1 X-1.569 Y17.641 E2.68602
G1 X-2.334 Y17.443 E2.70088
G1 X-3.074 Y17.169 E2.71573
G1 X-3.783 Y16.821 E2.73058
G1 X-4.454 Y16.403 E2.74546
G1 X-5.078 Y15.92 E2.7603
G1 X-5.651 Y15.377 E2.77515
G1 X-6.166 Y14.778 E2.79001
G1 X-6.617 Y14.13 E2.80486
G1 X-7.001 Y13.439 E2.81973
G1 X-7.313 Y12.714 E2.83458
G1 X-7.55 Y11.961 E2.84942
G1 X-7.709 Y11.187 E2.86429
G1 X-7.79 Y10.402 E2.87913
G1 X-7.8 Y10 E2.8867
G1 X-7.8 Y0.00 E3.0748
G1 X-7.76 Y-.789 E3.08966
G1 X-7.641 Y-1.569 E3.10451
G1 X-7.443 Y-2.334 E3.11937
G1 X-7.169 Y-3.074 E3.13421
G1 X-6.821 Y-3.783 E3.14907
G1 X-6.403 Y-4.454 E3.16394
G1 X-5.92 Y-5.078 E3.17878
G0 F3600 X-5.525 Y-4.923
G1 F1800 X-4.984 Y-5.47 E3.19326
G1 X-4.389 Y-5.958 E3.20773
G1 X-3.747 Y-6.381 E3.22219
G1 X-3.064 Y-6.736 E3.23667
G1 X-2.349 Y-7.017 E3.25112
G1 X-1.607 Y-7.223 E3.26561
G1 X-.849 Y-7.351 E3.28007
G1 X0.00 Y-7.4 E3.29607
G1 X50 Y-7.4 E4.23659
G1 X50.768 Y-7.36 E4.25106
G1 X51.528 Y-7.241 E4.26553
G1 X52.271 Y-7.043 E4.27999
G1 X52.99 Y-6.769 E4.29447
G1 X53.676 Y-6.422 E4.30893
G1 X54.323 Y-6.006 E4.3234
G1 X54.923 Y-5.525 E4.33786
G1 X55.47 Y-4.984 E4.35233
G1 X55.958 Y-4.389 E4.36681
G1 X56.381 Y-3.747 E4.38127
G1 X56.736 Y-3.064 E4.39575
G1 X57.017 Y-2.349 E4.4102
G1 X57.223 Y-1.607 E4.42469
G1 X57.351 Y-.849 E4.43915
G1 X57.4 Y0.00 E4.45514
G1 X57.4 Y10 E4.64325
G1 X57.36 Y10.768 E4.65772
G1 X57.241 Y11.528 E4.67219
G1 X57.043 Y12.271 E4.68665
G1 X56.769 Y12.99 E4.70112
G1 X56.422 Y13.676 E4.71558
G1 X56.006 Y14.323 E4.73005
G1 X55.525 Y14.923 E4.74452
G1 X54.984 Y15.47 E4.75899
G1 X54.389 Y15.958 E4.77347
G1 X53.747 Y16.381 E4.78793
G1 X53.064 Y16.736 E4.80241
G1 X52.349 Y17.017 E4.81686
G1 X51.607 Y17.223 E4.83134
G1 X50.849 Y17.351 E4.8458
G1 X50 Y17.4 E4.8618
G1 X0.00 Y17.4 E5.80233
G1 X-.768 Y17.36 E5.81679
G1 X-1.528 Y17.241 E5.83126
G1 X-2.271 Y17.043 E5.84573
G1 X-2.99 Y16.769 E5.8602
G1 X-3.676 Y16.422 E5.87466
G1 X-4.323 Y16.006 E5.88913
G1 X-4.923 Y15.525 E5.9036
G1 X-5.47 Y14.984 E5.91807
G1 X-5.958 Y14.389 E5.93254
G1 X-6.381 Y13.747 E5.94701
G1 X-6.736 Y13.064 E5.96149
G1 X-7.017 Y12.349 E5.97594
G1 X-7.223 Y11.607 E5.99042
G1 X-7.351 Y10.849 E6.00488
G1 X-7.4 Y10 E6.02088
G1 X-7.4 Y0.00 E6.20898
G1 X-7.36 Y-.768 E6.22345
G1 X-7.241 Y-1.528 E6.23792
G1 X-7.043 Y-2.271 E6.25239
G1 X-6.769 Y-2.99 E6.26686
G1 X-6.422 Y-3.676 E6.28132
G1 X-6.006 Y-4.323 E6.29579
G1 X-5.525 Y-4.923 E6.31025
G0 F3600 X-5.129 Y-4.763
G1 F1800 X-4.592 Y-5.284 E6.32433
G1 X-4.002 Y-5.743 E6.33839
G1 X-3.366 Y-6.138 E6.35247
G1 X-2.692 Y-6.462 E6.36654
G1 X-1.987 Y-6.712 E6.38061
G1 X-1.259 Y-6.886 E6.39469
G1 X-.517 Y-6.981 E6.40876
G1 X0.00 Y-7 E6.41849
G1 X50 Y-7 E7.35902
G1 X50.747 Y-6.96 E7.37309
G1 X51.485 Y-6.841 E7.38715
G1 X52.207 Y-6.643 E7.40124
G1 X52.903 Y-6.37 E7.4153
G1 X53.566 Y-6.023 E7.42938
G1 X54.189 Y-5.608 E7.44346
G1 X54.763 Y-5.129 E7.45752
G1 X55.284 Y-4.592 E7.47159
G1 X55.743 Y-4.002 E7.48566
G1 X56.138 Y-3.366 E7.49974
G1 X56.462 Y-2.692 E7.51381
G1 X56.712 Y-1.987 E7.52788
G1 X56.886 Y-1.259 E7.54196
G1 X56.981 Y-.517 E7.55603
G1 X57 Y0.00 E7.56576
G1 X57 Y10 E7.75386
G1 X56.96 Y10.747 E7.76794
G1 X56.841 Y11.485 E7.782
G1 X56.643 Y12.207 E7.79608
G1 X56.37 Y12.903 E7.81014
G1 X56.023 Y13.566 E7.82422
G1 X55.608 Y14.189 E7.8383
G1 X55.129 Y14.763 E7.85236
G1 X54.592 Y15.284 E7.86644
G1 X54.002 Y15.743 E7.8805
G1 X53.366 Y16.138 E7.89458
G1 X52.692 Y16.462 E7.90865
G1 X51.987 Y16.712 E7.92272
G1 X51.259 Y16.886 E7.9368
G1 X50.517 Y16.981 E7.95087
G1 X50 Y17 E7.9606
G1 X0.00 Y17 E8.90113
G1 X-.747 Y16.96 E8.9152
G1 X-1.485 Y16.841 E8.92926
G1 X-2.207 Y16.643 E8.94335
G1 X-2.903 Y16.37 E8.95741
G1 X-3.566 Y16.023 E8.97149
G1 X-4.189 Y15.608 E8.98557
G1 X-4.763 Y15.129 E8.99963
G1 X-5.284 Y14.592 E9.0137
G1 X-5.743 Y14.002 E9.02776
G1 X-6.138 Y13.366 E9.04185
G1 X-6.462 Y12.692 E9.05592
G1 X-6.712 Y11.987 E9.06999
G1 X-6.886 Y11.259 E9.08407
G1 X-6.981 Y10.517 E9.09814
G1 X-7 Y10 E9.10787
G1 X-7 Y0.00 E9.29597
G1 X-6.96 Y-.747 E9.31005
G1 X-6.841 Y-1.485 E9.32411
G1 X-6.643 Y-2.207 E9.33819
G1 X-6.37 Y-2.903 E9.35225
G1 X-6.023 Y-3.566 E9.36633
G1 X-5.608 Y-4.189 E9.38041
G1 X-5.129 Y-4.763 E9.39447
G0 F3600 X-5.211 Y-4.05
G1 F1800 X-4.735 Y-4.598 E9.40813
G1 X-4.201 Y-5.091 E9.4218
G1 X-3.616 Y-5.521 E9.43546
G1 X-2.987 Y-5.885 E9.44913
G1 X-2.322 Y-6.178 E9.46279
G1 X-1.629 Y-6.396 E9.47646
G1 X-.917 Y-6.536 E9.49011
G1 X0.00 Y-6.6 E9.5074
G1 X50 Y-6.6 E10.44793
G1 X50.725 Y-6.56 E10.46159
G1 X51.442 Y-6.441 E10.47526
G1 X52.141 Y-6.243 E10.48892
G1 X52.814 Y-5.97 E10.50259
G1 X53.453 Y-5.625 E10.51625
G1 X54.05 Y-5.211 E10.52991
G1 X54.598 Y-4.735 E10.54357
G1 X55.091 Y-4.201 E10.55724
G1 X55.521 Y-3.616 E10.57089
G1 X55.885 Y-2.987 E10.58456
G1 X56.178 Y-2.322 E10.59823
G1 X56.396 Y-1.629 E10.6119
G1 X56.536 Y-.917 E10.62555
G1 X56.6 Y0.00 E10.64284
G1 X56.6 Y10 E10.83095
G1 X56.56 Y10.725 E10.8446
G1 X56.441 Y11.442 E10.85828
G1 X56.243 Y12.141 E10.87194
G1 X55.97 Y12.814 E10.8856
G1 X55.625 Y13.453 E10.89926
G1 X55.211 Y14.05 E10.91293
G1 X54.735 Y14.598 E10.92658
G1 X54.201 Y15.091 E10.94025
G1 X53.616 Y15.521 E10.95391
G1 X52.987 Y15.885 E10.96758
G1 X52.322 Y16.178 E10.98125
G1 X51.629 Y16.396 E10.99492
G1 X50.917 Y16.536 E11.00857
G1 X50 Y16.6 E11.02586
G1 X0.00 Y16.6 E11.96638
G1 X-.725 Y16.56 E11.98004
G1 X-1.442 Y16.441 E11.99371
G1 X-2.141 Y16.243 E12.00738
G1 X-2.814 Y15.97 E12.02104
G1 X-3.453 Y15.625 E12.0347
G1 X-4.05 Y15.211 E12.04837
G1 X-4.598 Y14.735 E12.06202
G1 X-5.091 Y14.201 E12.07569
G1 X-5.521 Y13.616 E12.08935
G1 X-5.885 Y12.987 E12.10302
G1 X-6.178 Y12.322 E12.11669
G1 X-6.396 Y11.629 E12.13036
G1 X-6.536 Y10.917 E12.144
G1 X-6.6 Y10 E12.1613
G1 X-6.6 Y0.00 E12.3494
G1 X-6.56 Y-.725 E12.36306
G1 X-6.441 Y-1.442 E12.37673
G1 X-6.243 Y-2.141 E12.3904
G1 X-5.97 Y-2.814 E12.40406
G1 X-5.625 Y-3.453 E12.41772
G1 X-5.211 Y-4.05 E12.43138
G0 F3600 X-4.815 Y-3.906
G1 F1800 X-4.341 Y-4.427 E12.44463
G1 X-3.811 Y-4.891 E12.45788
G1 X-3.232 Y-5.291 E12.47112
G1 X-2.611 Y-5.623 E12.48437
G1 X-1.957 Y-5.883 E12.49761
G1 X-1.277 Y-6.067 E12.51086
G1 X-.581 Y-6.173 E12.5241
G1 X0.00 Y-6.2 E12.53504
G1 X50 Y-6.2 E13.47557
G1 X50.703 Y-6.16 E13.48881
G1 X51.397 Y-6.041 E13.50206
G1 X52.072 Y-5.843 E13.51529
G1 X52.721 Y-5.571 E13.52853
G1 X53.335 Y-5.226 E13.54178
G1 X53.906 Y-4.815 E13.55501
G1 X54.427 Y-4.341 E13.56826
G1 X54.891 Y-3.811 E13.58151
G1 X55.291 Y-3.232 E13.59475
G1 X55.623 Y-2.611 E13.60799
G1 X55.883 Y-1.957 E13.62123
G1 X56.067 Y-1.277 E13.63448
G1 X56.173 Y-.581 E13.64773
G1 X56.2 Y0.00 E13.65867
G1 X56.2 Y10 E13.84677
G1 X56.16 Y10.703 E13.86002
G1 X56.041 Y11.397 E13.87326
G1 X55.843 Y12.072 E13.8865
G1 X55.571 Y12.721 E13.89973
G1 X55.226 Y13.335 E13.91298
G1 X54.815 Y13.906 E13.92621
G1 X54.341 Y14.427 E13.93946
G1 X53.811 Y14.891 E13.95271
G1 X53.232 Y15.291 E13.96595
G1 X52.611 Y15.623 E13.9792
G1 X51.957 Y15.883 E13.99244
G1 X51.277 Y16.067 E14.00569
G1 X50.581 Y16.173 E14.01893
G1 X50 Y16.2 E14.02987
G1 X0.00 Y16.2 E14.9704
G1 X-.703 Y16.16 E14.98364
G1 X-1.397 Y16.041 E14.99689
G1 X-2.072 Y15.843 E15.01012
G1 X-2.721 Y15.571 E15.02336
G1 X-3.335 Y15.226 E15.03661
G1 X-3.906 Y14.815 E15.04984
G1 X-4.427 Y14.341 E15.06309
G1 X-4.891 Y13.811 E15.07634
G1 X-5.291 Y13.232 E15.08958
G1 X-5.623 Y12.611 E15.10282
G1 X-5.883 Y11.957 E15.11606
G1 X-6.067 Y11.277 E15.12931
G1 X-6.173 Y10.581 E15.14256
G1 X-6.2 Y10 E15.1535
G1 X-6.2 Y0.00 E15.3416
G1 X-6.16 Y-.703 E15.35485
G1 X-6.041 Y-1.397 E15.36809
G1 X-5.843 Y-2.072 E15.38133
G1 X-5.571 Y-2.721 E15.39456
G1 X-5.226 Y-3.335 E15.40781
G1 X-4.815 Y-3.906 E15.42104
G0 F3600 X-4.418 Y-3.758
G1 F1800 X-3.947 Y-4.249 E15.43384
G1 X-3.422 Y-4.683 E15.44666
G1 X-2.85 Y-5.052 E15.45946
G1 X-2.238 Y-5.351 E15.47227
G1 X-1.596 Y-5.576 E15.48507
G1 X-.931 Y-5.725 E15.49789
G1 X0.00 Y-5.8 E15.51546
G1 X50 Y-5.8 E16.45599
G1 X50.68 Y-5.76 E16.4688
G1 X51.35 Y-5.641 E16.4816
G1 X52.002 Y-5.444 E16.49441
G1 X52.626 Y-5.172 E16.50722
G1 X53.214 Y-4.828 E16.52003
G1 X53.758 Y-4.418 E16.53284
G1 X54.249 Y-3.947 E16.54564
G1 X54.683 Y-3.422 E16.55845
G1 X55.052 Y-2.85 E16.57126
G1 X55.351 Y-2.238 E16.58407
G1 X55.576 Y-1.596 E16.59687
G1 X55.725 Y-.931 E16.60969
G1 X55.8 Y0.00 E16.62726
G1 X55.8 Y10 E16.81536
G1 X55.76 Y10.68 E16.82818
G1 X55.641 Y11.35 E16.84098
G1 X55.444 Y12.002 E16.85379
G1 X55.172 Y12.626 E16.86659
G1 X54.828 Y13.214 E16.87941
G1 X54.418 Y13.758 E16.89222
G1 X53.947 Y14.249 E16.90502
G1 X53.422 Y14.683 E16.91783
G1 X52.85 Y15.052 E16.93064
G1 X52.238 Y15.351 E16.94345
G1 X51.596 Y15.576 E16.95625
G1 X50.931 Y15.725 E16.96906
G1 X50 Y15.8 E16.98663
G1 X0.00 Y15.8 E17.92716
G1 X-.68 Y15.76 E17.93998
G1 X-1.35 Y15.641 E17.95278
G1 X-2.002 Y15.444 E17.96559
G1 X-2.626 Y15.172 E17.97839
G1 X-3.214 Y14.828 E17.99121
G1 X-3.758 Y14.418 E18.00402
G1 X-4.249 Y13.947 E18.01682
G1 X-4.683 Y13.422 E18.02963
G1 X-5.052 Y12.85 E18.04244
G1 X-5.351 Y12.238 E18.05525
G1 X-5.576 Y11.596 E18.06804
G1 X-5.725 Y10.931 E18.08086
G1 X-5.8 Y10 E18.09843
G1 X-5.8 Y0.00 E18.28654
G1 X-5.76 Y-.68 E18.29935
G1 X-5.641 Y-1.35 E18.31215
G1 X-5.444 Y-2.002 E18.32496
G1 X-5.172 Y-2.626 E18.33777
G1 X-4.828 Y-3.214 E18.35058
G1 X-4.418 Y-3.758 E18.3634
G0 F3600 X-4.022 Y-3.603
G1 F1800 X-3.555 Y-4.065 E18.37575
G1 X-3.035 Y-4.466 E18.38811
G1 X-2.471 Y-4.802 E18.40046
G1 X-1.869 Y-5.066 E18.41282
G1 X-1.24 Y-5.256 E18.42518
G1 X-.593 Y-5.367 E18.43753
G1 X0.00 Y-5.4 E18.4487
G1 X50 Y-5.4 E19.38923
G1 X50.656 Y-5.36 E19.40159
G1 X51.302 Y-5.241 E19.41395
G1 X51.929 Y-5.044 E19.42631
G1 X52.527 Y-4.772 E19.43867
G1 X53.088 Y-4.43 E19.45103
G1 X53.603 Y-4.022 E19.46339
G1 X54.065 Y-3.555 E19.47574
G1 X54.466 Y-3.035 E19.48809
G1 X54.802 Y-2.471 E19.50044
G1 X55.066 Y-1.869 E19.51281
G1 X55.256 Y-1.24 E19.52517
G1 X55.367 Y-.593 E19.53752
G1 X55.4 Y0.00 E19.54869
G1 X55.4 Y10 E19.73679
G1 X55.36 Y10.656 E19.74916
G1 X55.241 Y11.302 E19.76151
G1 X55.044 Y11.929 E19.77388
G1 X54.772 Y12.527 E19.78623
G1 X54.43 Y13.088 E19.79859
G1 X54.022 Y13.603 E19.81095
G1 X53.555 Y14.065 E19.82331
G1 X53.035 Y14.466 E19.83566
G1 X52.471 Y14.802 E19.84801
G1 X51.869 Y15.066 E19.86037
G1 X51.24 Y15.256 E19.87273
G1 X50.593 Y15.367 E19.88508
G1 X50 Y15.4 E19.89625
G1 X0.00 Y15.4 E20.83678
G1 X-.656 Y15.36 E20.84914
G1 X-1.302 Y15.241 E20.8615
G1 X-1.929 Y15.044 E20.87386
G1 X-2.527 Y14.772 E20.88622
G1 X-3.088 Y14.43 E20.89858
G1 X-3.603 Y14.022 E20.91094
G1 X-4.065 Y13.555 E20.9233
G1 X-4.466 Y13.035 E20.93565
G1 X-4.802 Y12.471 E20.948
G1 X-5.066 Y11.869 E20.96036
G1 X-5.256 Y11.24 E20.97272
G1 X-5.367 Y10.593 E20.98507
G1 X-5.4 Y10 E20.99624
G1 X-5.4 Y0.00 E21.18435
G1 X-5.36 Y-.656 E21.19671
G1 X-5.241 Y-1.302 E21.20907
G1 X-5.044 Y-1.929 E21.22143
G1 X-4.772 Y-2.527 E21.23379
G1 X-4.43 Y-3.088 E21.24615
G1 X-4.022 Y-3.603 E21.25851
G0 F3600 X-3.627 Y-3.441
G1 F1800 X-3.164 Y-3.871 E21.27039
G1 X-2.65 Y-4.24 E21.28229
G1 X-2.094 Y-4.54 E21.29418
G1 X-1.505 Y-4.768 E21.30606
G1 X-.891 Y-4.92 E21.31796
G1 X0.00 Y-5 E21.33478
G1 X50 Y-5 E22.27531
G1 X50.631 Y-4.96 E22.28721
G1 X51.252 Y-4.841 E22.2991
G1 X51.852 Y-4.644 E22.31098
G1 X52.424 Y-4.373 E22.32288
G1 X52.956 Y-4.033 E22.33476
G1 X53.441 Y-3.627 E22.34666
G1 X53.871 Y-3.164 E22.35854
G1 X54.24 Y-2.65 E22.37045
G1 X54.54 Y-2.094 E22.38233
G1 X54.768 Y-1.505 E22.39421
G1 X54.92 Y-.891 E22.40611
G1 X55 Y0.00 E22.42294
G1 X55 Y10 E22.61104
G1 X54.96 Y10.631 E22.62294
G1 X54.841 Y11.252 E22.63483
G1 X54.644 Y11.852 E22.64671
G1 X54.373 Y12.424 E22.65861
G1 X54.033 Y12.956 E22.67049
G1 X53.627 Y13.441 E22.68239
G1 X53.164 Y13.871 E22.69428
G1 X52.65 Y14.24 E22.70618
G1 X52.094 Y14.54 E22.71806
G1 X51.505 Y14.768 E22.72994
G1 X50.891 Y14.92 E22.74184
G1 X50 Y15 E22.75867
G1 X0.00 Y15 E23.6992
G1 X-.631 Y14.96 E23.71109
G1 X-1.252 Y14.841 E23.72298
G1 X-1.852 Y14.644 E23.73486
G1 X-2.424 Y14.373 E23.74677
G1 X-2.956 Y14.033 E23.75864
G1 X-3.441 Y13.627 E23.77054
G1 X-3.871 Y13.164 E23.78243
G1 X-4.24 Y12.65 E23.79433
G1 X-4.54 Y12.094 E23.80621
G1 X-4.768 Y11.505 E23.81809
G1 X-4.92 Y10.891 E23.82999
G1 X-5 Y10 E23.84682
G1 X-5 Y0.00 E24.03493
G1 X-4.96 Y-.631 E24.04682
G1 X-4.841 Y-1.252 E24.05871
G1 X-4.644 Y-1.852 E24.07059
G1 X-4.373 Y-2.424 E24.0825
G1 X-4.033 Y-2.956 E24.09438
G1 X-3.627 Y-3.441 E24.10627
G0 F3600 X-3.635 Y-2.819
G1 F1800 X-3.233 Y-3.272 E24.11767
G1 X-2.775 Y-3.669 E24.12907
G1 X-2.268 Y-4.002 E24.14048
G1 X-1.722 Y-4.266 E24.15188
G1 X-1.146 Y-4.455 E24.16329
G1 X-.55 Y-4.567 E24.1747
G1 X0.00 Y-4.6 E24.18506
G1 X50 Y-4.6 E25.12559
G1 X50.605 Y-4.56 E25.13699
G1 X51.199 Y-4.441 E25.14839
G1 X51.773 Y-4.245 E25.1598
G1 X52.316 Y-3.974 E25.17121
G1 X52.819 Y-3.635 E25.18262
G1 X53.272 Y-3.233 E25.19402
G1 X53.669 Y-2.775 E25.20542
G1 X54.002 Y-2.268 E25.21683
G1 X54.266 Y-1.722 E25.22824
G1 X54.455 Y-1.146 E25.23964
G1 X54.567 Y-.55 E25.25105
G1 X54.6 Y0.00 E25.26141
G1 X54.6 Y10 E25.44952
G1 X54.56 Y10.605 E25.46092
G1 X54.441 Y11.199 E25.47232
G1 X54.245 Y11.773 E25.48373
G1 X53.974 Y12.316 E25.49514
G1 X53.635 Y12.819 E25.50655
G1 X53.233 Y13.272 E25.51794
G1 X52.775 Y13.669 E25.52935
G1 X52.268 Y14.002 E25.54076
G1 X51.722 Y14.266 E25.55216
G1 X51.146 Y14.455 E25.56357
G1 X50.55 Y14.567 E25.57497
G1 X50 Y14.6 E25.58534
G1 X0.00 Y14.6 E26.52587
G1 X-.605 Y14.56 E26.53727
G1 X-1.199 Y14.441 E26.54867
G1 X-1.773 Y14.245 E26.56008
G1 X-2.316 Y13.974 E26.57149
G1 X-2.819 Y13.635 E26.5829
G1 X-3.272 Y13.233 E26.59429
G1 X-3.669 Y12.775 E26.6057
G1 X-4.002 Y12.268 E26.61711
G1 X-4.266 Y11.722 E26.62851
G1 X-4.455 Y11.146 E26.63992
G1 X-4.567 Y10.55 E26.65133
G1 X-4.6 Y10 E26.66169
G1 X-4.6 Y0.00 E26.84979
G1 X-4.56 Y-.605 E26.8612
G1 X-4.441 Y-1.199 E26.8726
G1 X-4.245 Y-1.773 E26.88401
G1 X-3.974 Y-2.316 E26.89542
G1 X-3.635 Y-2.819 E26.90683
G0 F3600 X-3.239 Y-2.674
G1 F1800 X-2.84 Y-3.094 E26.91773
G1 X-2.387 Y-3.456 E26.92864
G1 X-1.889 Y-3.751 E26.93952
G1 X-1.355 Y-3.976 E26.95042
G1 X-.795 Y-4.124 E26.96132
G1 X0.00 Y-4.2 E26.97634
G1 X50 Y-4.2 E27.91687
G1 X50.578 Y-4.16 E27.92777
G1 X51.145 Y-4.041 E27.93867
G1 X51.69 Y-3.845 E27.94956
G1 X52.203 Y-3.576 E27.96046
G1 X52.674 Y-3.239 E27.97135
G1 X53.094 Y-2.84 E27.98225
G1 X53.456 Y-2.387 E27.99316
G1 X53.751 Y-1.889 E28.00404
G1 X53.976 Y-1.355 E28.01494
G1 X54.124 Y-.795 E28.02584
G1 X54.2 Y0.00 E28.04086
G1 X54.2 Y10 E28.22897
G1 X54.16 Y10.578 E28.23987
G1 X54.041 Y11.145 E28.25076
